src/main/resources/icons/JetgroovyIcons/icons/groovy/groovy_13x13.svg

<svg xmlns="http://www.w3.org/2000/svg" width="13" height="13" viewBox="0 0 13 13">
  <path fill="#AFB1B3" fill-rule="evenodd" d="M6.5,12 C3.46242857,12 1,9.53757143 1,6.5 C1,3.46242857 3.46242857,1 6.5,1 C9.53757143,1 12,3.46242857 12,6.5 C12,9.53757143 9.53757143,12 6.5,12 Z M6.60418455,9 C7.46053814,9 8.1442398,8.65469613 8.62075914,8.24723757 L8.62075914,6.21685083 L6.56274809,6.21685083 L6.56274809,6.96270718 L7.79893593,6.96270718 L7.79893593,7.86049724 C7.50197461,8.08149171 7.08760996,8.22651934 6.63180886,8.22651934 C5.6442398,8.22651934 4.98816245,7.49447514 4.98816245,6.5 L4.98816245,6.48618785 C4.98816245,5.56077348 5.66495803,4.78729282 6.55584201,4.78729282 C7.17048289,4.78729282 7.53650499,4.98756906 7.90943317,5.29834254 L8.4481072,4.65607735 C7.95086963,4.23480663 7.43291383,4 6.5903724,4 C5.13319008,4 4.09727847,5.14640884 4.09727847,6.5 L4.09727847,6.51381215 C4.09727847,7.92265193 5.09175361,9 6.60418455,9 Z"/>
</svg>

<svg xmlns="http://www.w3.org/2000/svg" width="13" height="13" viewBox="0 0 13 13"><rect id="frame" width="13" height="13" fill="none"/><path fill="#AFB1B3" fill-rule="evenodd" d="M6.5 12a5.5 5.5 0 1 1 0-11 5.5 5.5 0 0 1 0 11zm.104-3c.857 0 1.54-.345 2.017-.753v-2.03H6.563v.746h1.236v.897a1.973 1.973 0 0 1-1.167.367c-.988 0-1.644-.733-1.644-1.727v-.014c0-.925.677-1.699 1.568-1.699.614 0 .98.2 1.353.511l.54-.642C7.95 4.235 7.432 4 6.59 4 5.133 4 4.097 5.146 4.097 6.5v.014C4.097 7.923 5.092 9 6.604 9z"/></svg>
